**harm	**harte	**silbe	**rhyme	**timestamp	**phrase	**leadinstrument	**kern
*M4/4	*M4/4	*	*	*	*	*	*
*	*	*	*	*	*	*	*
*	*	*	*	*	*	*	*
*B:	*B:	*	*	*B:	*B:	*B:	*B:
*	*	*	*	*	*	*	*
*	*	*	*	*	*	*	*
1r;	N	.	.	0	.	r	1r;
=1	=1	=1	=1	=1	=1	=1	=1
*>Letter>A	*>Letter>A	*>Letter>A	*>Letter>A	*>Letter>A	*>Letter>A	*>Letter>A	*>Letter>A
*>Label>Intro	*>Label>Intro	*>Label>Intro	*>Label>Intro	*>Label>Intro	*>Label>Intro	*>Label>Intro	*>Label>Intro
1I	B:maj	.	.	0.37	newline	r	1B 1dd# 1ff#
=2	=2	=2	=2	=2	=2	=2	=2
1I	B:maj	.	.	2.71	.	r	1B 1dd# 1ff#
=3	=3	=3	=3	=3	=3	=3	=3
2IVc	E:maj/5	.	.	5.049	newline	guitar	1e 1g# 1B
2I	B:maj	.	.	6.183	.	guitar	2B 2dd# 2ff#
=4	=4	=4	=4	=4	=4	=4	=4
2IVc	E:maj/5	.	.	7.316	.	guitar	1e 1g# 1B
2I	B:maj	.	.	8.45	.	guitar	2B 2dd# 2ff#
=5	=5	=5	=5	=5	=5	=5	=5
1V	F#:maj	.	.	9.584	.	guitar	1F# 1a# 1cc#
=6	=6	=6	=6	=6	=6	=6	=6
1V	F#:maj	.	.	11.851	.	guitar	1F# 1a# 1cc#
=7	=7	=7	=7	=7	=7	=7	=7
2IVc	E:maj/5	.	.	14.118	newline	guitar	1e 1g# 1B
2I	B:maj	.	.	15.232	.	guitar	2B 2dd# 2ff#
=8	=8	=8	=8	=8	=8	=8	=8
2IVc	E:maj/5	.	.	16.346	.	guitar	1e 1g# 1B
2I	B:maj	.	.	17.46	.	guitar	2B 2dd# 2ff#
=9	=9	=9	=9	=9	=9	=9	=9
1V	F#:maj	.	.	18.575	.	guitar	1F# 1a# 1cc#
=10	=10	=10	=10	=10	=10	=10	=10
1V	F#:maj	.	.	20.803	.	guitar	1F# 1a# 1cc#
=11	=11	=11	=11	=11	=11	=11	=11
*>Letter>A	*>Letter>A	*>Letter>A	*>Letter>A	*>Letter>A	*>Letter>A	*>Letter>A	*>Letter>A
*>Label>Verse	*>Label>Verse	*>Label>Verse	*>Label>Verse	*>Label>Verse	*>Label>Verse	*>Label>Verse	*>Label>Verse
2IVc	E:maj/5	.	.	23.031	newline	voice	2e 2g# 2B
.	.	Why	.	.	.	.	.
.	.	are	.	.	.	.	.
.	.	you	.	.	.	.	.
.	.	in	.	.	.	.	.
2I	B:maj	so	.	24.152	.	voice	2B 2dd# 2ff#
.	.	much	.	.	.	.	.
.	.	hur-	(A	.	.	.	.
.	.	-ry	a)	.	.	.	.
=12	=12	=12	=12	=12	=12	=12	=12
2IVc	E:maj/5	.	.	25.272	.	voice	2e 2g# 2B
.	.	Is	.	.	.	.	.
.	.	it	.	.	.	.	.
.	.	real-	.	.	.	.	.
.	.	-ly	.	.	.	.	.
2I	B:maj	worth	.	26.392	.	voice	2B 2dd# 2ff#
.	.	the	.	.	.	.	.
.	.	wor-	(A	.	.	.	.
.	.	-ry	a)	.	.	.	.
=13	=13	=13	=13	=13	=13	=13	=13
1V	F#:maj	_	.	27.513	.	voice	1F# 1a# 1cc#
.	.	Look	.	.	.	.	.
.	.	a-	.	.	.	.	.
.	.	-round	B	.	.	.	.
.	.	_	.	.	.	.	.
.	.	_	.	.	.	.	.
.	.	_	.	.	.	.	.
.	.	.	.	.	.	.	.
=14	=14	=14	=14	=14	=14	=14	=14
1V	F#:maj	.	.	29.753	.	voice	1F# 1a# 1cc#
.	.	Then	.	.	.	.	.
.	.	slow	.	.	.	.	.
.	.	down	B	.	.	.	.
.	.	_	.	.	.	.	.
.	.	_	.	.	.	.	.
.	.	_	.	.	.	.	.
.	.	.	.	.	.	.	.
=15	=15	=15	=15	=15	=15	=15	=15
2IVc	E:maj/5	.	.	31.994	newline	voice	2e 2g# 2B
.	.	What's	.	.	.	.	.
.	.	it	.	.	.	.	.
.	.	like	.	.	.	.	.
.	.	in-	.	.	.	.	.
2I	B:maj	-side	.	33.122	.	voice	2B 2dd# 2ff#
.	.	the	.	.	.	.	.
.	.	bub-	(C	.	.	.	.
.	.	-ble	c)	.	.	.	.
=16	=16	=16	=16	=16	=16	=16	=16
2IVc	E:maj/5	.	.	34.249	.	voice	2e 2g# 2B
.	.	Does	.	.	.	.	.
.	.	your	.	.	.	.	.
.	.	head	.	.	.	.	.
.	.	e-	.	.	.	.	.
.	.	-ver	.	.	.	.	.
2I	B:maj	give	.	35.377	.	voice	2B 2dd# 2ff#
.	.	you	.	.	.	.	.
.	.	trou-	(C	.	.	.	.
.	.	-ble	c)	.	.	.	.
=17	=17	=17	=17	=17	=17	=17	=17
1V	F#:maj	.	.	36.505	.	voice	1F# 1a# 1cc#
.	.	It's	.	.	.	.	.
.	.	no	.	.	.	.	.
.	.	sin	D	.	.	.	.
.	.	_	.	.	.	.	.
.	.	_	.	.	.	.	.
.	.	_	.	.	.	.	.
.	.	.	.	.	.	.	.
=18	=18	=18	=18	=18	=18	=18	=18
1V	F#:maj	.	.	38.76	.	voice	1F# 1a# 1cc#
.	.	Trade	.	.	.	.	.
.	.	it	.	.	.	.	.
.	.	in	D	.	.	.	.
.	.	_	.	.	.	.	.
.	.	_	.	.	.	.	.
.	.	_	.	.	.	.	.
.	.	.	.	.	.	.	.
=19	=19	=19	=19	=19	=19	=19	=19
*>Letter>B	*>Letter>B	*>Letter>B	*>Letter>B	*>Letter>B	*>Letter>B	*>Letter>B	*>Letter>B
*>Label>Chorus	*>Label>Chorus	*>Label>Chorus	*>Label>Chorus	*>Label>Chorus	*>Label>Chorus	*>Label>Chorus	*>Label>Chorus
*C:	*C:	*	*	*C:	*C:	*C:	*C:
2IVc	F:maj/5	Hang	.	41.016	newline	voice	2f 2a 2C
.	.	on,	.	.	.	.	.
2I	C:maj	_	.	42.161	.	voice	2C 2e 2g
.	.	.	.	.	.	.	.
.	.	.	.	.	.	.	.
=20	=20	=20	=20	=20	=20	=20	=20
2IVc	F:maj/5	help	.	43.306	.	voice	2f 2a 2C
.	.	is	.	.	.	.	.
.	.	on	.	.	.	.	.
.	.	_	.	.	.	.	.
.	.	its	.	.	.	.	.
2I	C:maj	way	E	44.451	.	voice	2C 2e 2g
.	.	.	.	.	.	.	.
=21	=21	=21	=21	=21	=21	=21	=21
2IVc	F:maj/5	I'll	.	45.596	.	voice	2f 2a 2C
.	.	be	.	.	.	.	.
.	.	there	.	.	.	.	.
.	.	_	.	.	.	.	.
.	.	as	.	.	.	.	.
2I	C:maj	fast	.	46.741	.	voice	2C 2e 2g
.	.	as	.	.	.	.	.
.	.	I	.	.	.	.	.
.	.	can	F	.	.	.	.
=22	=22	=22	=22	=22	=22	=22	=22
1V	G:maj	_	.	47.886	.	voice	1G 1b 1dd
.	.	_	.	.	.	.	.
.	.	_	.	.	.	.	.
.	.	.	.	.	.	.	.
=23	=23	=23	=23	=23	=23	=23	=23
2IVc	F:maj/5	Hang	.	50.176	newline	voice	2f 2a 2C
.	.	on,	.	.	.	.	.
2I	C:maj	_	.	51.261	.	voice	2C 2e 2g
.	.	.	.	.	.	.	.
.	.	.	.	.	.	.	.
.	.	a	.	.	.	.	.
=24	=24	=24	=24	=24	=24	=24	=24
2IVc	F:maj/5	ti-	.	52.345	.	voice	2f 2a 2C
.	.	-ny	.	.	.	.	.
.	.	voice	.	.	.	.	.
.	.	_	.	.	.	.	.
.	.	did	.	.	.	.	.
2I	C:maj	say	E	53.43	.	voice	2C 2e 2g
.	.	.	.	.	.	.	.
.	.	From	.	.	.	.	.
=25	=25	=25	=25	=25	=25	=25	=25
2IVc	F:maj/5	some-	.	54.515	.	voice	2f 2a 2C
.	.	-where	.	.	.	.	.
.	.	deep	.	.	.	.	.
.	.	in-	.	.	.	.	.
2I	C:maj	-side	.	55.6	.	voice	2C 2e 2g
.	.	the	.	.	.	.	.
.	.	in-	.	.	.	.	.
.	.	_	.	.	.	.	.
.	.	-ner	.	.	.	.	.
.	.	man	F	.	.	.	.
=26	=26	=26	=26	=26	=26	=26	=26
1V	G:maj	_	.	56.684	.	voice	1G 1b 1dd
.	.	_	.	.	.	.	.
.	.	_	.	.	.	.	.
.	.	.	.	.	.	.	.
=27	=27	=27	=27	=27	=27	=27	=27
*B:	*B:	*	*	*B:	*B:	*B:	*B:
*>Letter>A	*>Letter>A	*>Letter>A	*>Letter>A	*>Letter>A	*>Letter>A	*>Letter>A	*>Letter>A
*>Label>Verse	*>Label>Verse	*>Label>Verse	*>Label>Verse	*>Label>Verse	*>Label>Verse	*>Label>Verse	*>Label>Verse
2IVc	E:maj/5	.	.	58.854	newline	voice	2e 2g# 2B
.	.	Are	.	.	.	.	.
.	.	you	.	.	.	.	.
.	.	al-	.	.	.	.	.
.	.	-ways	.	.	.	.	.
2I	B:maj	in	.	59.976	.	voice	2B 2dd# 2ff#
.	.	con-	.	.	.	.	.
.	.	-fu-	(G	.	.	.	.
.	.	-sion	g)	.	.	.	.
=28	=28	=28	=28	=28	=28	=28	=28
2IVc	E:maj/5	.	.	61.099	.	voice	2e 2g# 2B
.	.	Sur-	.	.	.	.	.
.	.	-roun-	.	.	.	.	.
.	.	_	.	.	.	.	.
.	.	-ded	.	.	.	.	.
2I	B:maj	by	.	62.221	.	voice	2B 2dd# 2ff#
.	.	il-	.	.	.	.	.
.	.	-lu-	(G	.	.	.	.
.	.	-sion	g)	.	.	.	.
=29	=29	=29	=29	=29	=29	=29	=29
1V	F#:maj	.	.	63.344	.	voice	1F# 1a# 1cc#
.	.	Sort	.	.	.	.	.
.	.	it	.	.	.	.	.
.	.	out	.	.	.	.	.
.	.	_	.	.	.	.	.
.	.	_	.	.	.	.	.
.	.	_	.	.	.	.	.
.	.	.	.	.	.	.	.
=30	=30	=30	=30	=30	=30	=30	=30
1V	F#:maj	.	.	65.589	.	voice	1F# 1a# 1cc#
.	.	You'll	.	.	.	.	.
.	.	make	.	.	.	.	.
.	.	out	.	.	.	.	.
.	.	_	.	.	.	.	.
.	.	_	.	.	.	.	.
.	.	_	.	.	.	.	.
.	.	.	.	.	.	.	.
=31	=31	=31	=31	=31	=31	=31	=31
2IVc	E:maj/5	.	.	67.834	newline	voice	2e 2g# 2B
.	.	Seem	.	.	.	.	.
.	.	to	.	.	.	.	.
.	.	make	.	.	.	.	.
.	.	a	.	.	.	.	.
.	.	good	.	.	.	.	.
2I	B:maj	.	.	68.953	.	voice	2B 2dd# 2ff#
.	.	be-	.	.	.	.	.
.	.	-gin-	(H	.	.	.	.
.	.	-ning	h)	.	.	.	.
=32	=32	=32	=32	=32	=32	=32	=32
2IVc	E:maj/5	.	.	70.072	.	voice	2e 2g# 2B
.	.	Some-	.	.	.	.	.
.	.	-one	.	.	.	.	.
.	.	else	.	.	.	.	.
.	.	ends	.	.	.	.	.
2I	B:maj	_	.	71.191	.	voice	2B 2dd# 2ff#
.	.	up	.	.	.	.	.
.	.	win-	(H	.	.	.	.
.	.	-ning	h)	.	.	.	.
=33	=33	=33	=33	=33	=33	=33	=33
1V	F#:maj	.	.	72.311	.	voice	1F# 1a# 1cc#
.	.	Don't	.	.	.	.	.
.	.	seem	.	.	.	.	.
.	.	fair	I	.	.	.	.
.	.	_	.	.	.	.	.
.	.	_	.	.	.	.	.
.	.	_	.	.	.	.	.
.	.	.	.	.	.	.	.
=34	=34	=34	=34	=34	=34	=34	=34
1V	F#:maj	.	.	74.549	.	voice	1F# 1a# 1cc#
.	.	Don't	.	.	.	.	.
.	.	you	.	.	.	.	.
.	.	care	I	.	.	.	.
.	.	_	.	.	.	.	.
.	.	_	.	.	.	.	.
.	.	_	.	.	.	.	.
.	.	.	.	.	.	.	.
=35	=35	=35	=35	=35	=35	=35	=35
*>Letter>B	*>Letter>B	*>Letter>B	*>Letter>B	*>Letter>B	*>Letter>B	*>Letter>B	*>Letter>B
*>Label>Chorus	*>Label>Chorus	*>Label>Chorus	*>Label>Chorus	*>Label>Chorus	*>Label>Chorus	*>Label>Chorus	*>Label>Chorus
*C:	*C:	*	*	*C:	*C:	*C:	*C:
2IVc	F:maj/5	Hang	.	76.788	newline	voice	2f 2a 2C
.	.	on,	.	.	.	.	.
2I	C:maj	_	.	77.909	.	voice	2C 2e 2g
.	.	.	.	.	.	.	.
.	.	.	.	.	.	.	.
=36	=36	=36	=36	=36	=36	=36	=36
2IVc	F:maj/5	help	.	79.031	.	voice	2f 2a 2C
.	.	is	.	.	.	.	.
.	.	on	.	.	.	.	.
.	.	_	.	.	.	.	.
.	.	its	.	.	.	.	.
2I	C:maj	way	E	80.152	.	voice	2C 2e 2g
.	.	.	.	.	.	.	.
=37	=37	=37	=37	=37	=37	=37	=37
2IVc	F:maj/5	I'll	.	81.274	.	voice	2f 2a 2C
.	.	be	.	.	.	.	.
.	.	there	.	.	.	.	.
.	.	_	.	.	.	.	.
.	.	as	.	.	.	.	.
2I	C:maj	fast	.	82.396	.	voice	2C 2e 2g
.	.	as	.	.	.	.	.
.	.	I	.	.	.	.	.
.	.	can	F	.	.	.	.
=38	=38	=38	=38	=38	=38	=38	=38
1V	G:maj	_	.	83.517	.	voice	1G 1b 1dd
.	.	_	.	.	.	.	.
.	.	_	.	.	.	.	.
.	.	.	.	.	.	.	.
=39	=39	=39	=39	=39	=39	=39	=39
2IVc	F:maj/5	Hang	.	85.76	newline	voice	2f 2a 2C
.	.	on,	.	.	.	.	.
2I	C:maj	_	.	86.88	.	voice	2C 2e 2g
.	.	.	.	.	.	.	.
.	.	.	.	.	.	.	.
.	.	a	.	.	.	.	.
=40	=40	=40	=40	=40	=40	=40	=40
2IVc	F:maj/5	ti-	.	88	.	voice	2f 2a 2C
.	.	-ny	.	.	.	.	.
.	.	voice	.	.	.	.	.
.	.	_	.	.	.	.	.
.	.	did	.	.	.	.	.
2I	C:maj	say	E	89.119	.	voice	2C 2e 2g
.	.	.	.	.	.	.	.
.	.	From	.	.	.	.	.
=41	=41	=41	=41	=41	=41	=41	=41
2IVc	F:maj/5	some-	.	90.239	.	voice	2f 2a 2C
.	.	-where	.	.	.	.	.
.	.	deep	.	.	.	.	.
.	.	in-	.	.	.	.	.
2I	C:maj	-side	.	91.358	.	voice	2C 2e 2g
.	.	the	.	.	.	.	.
.	.	in-	.	.	.	.	.
.	.	_	.	.	.	.	.
.	.	-ner	.	.	.	.	.
.	.	man	F	.	.	.	.
=42	=42	=42	=42	=42	=42	=42	=42
1V	G:maj	_	.	92.478	.	voice	1G 1b 1dd
.	.	_	.	.	.	.	.
.	.	_	.	.	.	.	.
.	.	_	.	.	.	.	.
.	.	_	.	.	.	.	.
.	.	.	.	.	.	.	.
=43	=43	=43	=43	=43	=43	=43	=43
*>Letter>C	*>Letter>C	*>Letter>C	*>Letter>C	*>Letter>C	*>Letter>C	*>Letter>C	*>Letter>C
*>Label>Bridge	*>Label>Bridge	*>Label>Bridge	*>Label>Bridge	*>Label>Bridge	*>Label>Bridge	*>Label>Bridge	*>Label>Bridge
*f#:	*f#:	*	*	*f#:	*f#:	*f#:	*f#:
1i	F#:min	.	.	94.717	newline	piano	1F# 1a 1cc#
=44	=44	=44	=44	=44	=44	=44	=44
1vb	C#:min/3	.	.	96.955	.	piano	1c# 1E 1g#
=45	=45	=45	=45	=45	=45	=45	=45
1-IIIc	A:maj/5	.	.	99.194	.	piano	1a- 1cc 1E-
=46	=46	=46	=46	=46	=46	=46	=46
1iv	B:min	.	.	101.432	.	piano	1B 1dd 1ff#
=47	=47	=47	=47	=47	=47	=47	=47
1i	F#:min	Don't	.	103.67	newline	voice	1F# 1a 1cc#
.	.	you	.	.	.	.	.
.	.	for-	.	.	.	.	.
.	.	-get	.	.	.	.	.
.	.	.	.	.	.	.	.
.	.	who'll	.	.	.	.	.
.	.	take	.	.	.	.	.
=48	=48	=48	=48	=48	=48	=48	=48
1vb	C#:min/3	care	.	105.889	.	voice	1c# 1E 1g#
.	.	of	.	.	.	.	.
.	.	you	G	.	.	.	.
.	.	_	.	.	.	.	.
.	.	.	.	.	.	.	.
.	.	.	.	.	.	.	.
=49	=49	=49	=49	=49	=49	=49	=49
1-IIIc	A:maj/5	It	.	108.109	.	voice	1a- 1cc 1E-
.	.	don't	.	.	.	.	.
.	.	mat-	.	.	.	.	.
.	.	-ter	.	.	.	.	.
.	.	.	.	.	.	.	.
=50	=50	=50	=50	=50	=50	=50	=50
1iv	B:min	what	.	110.329	.	voice	1B 1dd 1ff#
.	.	you	.	.	.	.	.
.	.	do	G	.	.	.	.
.	.	_	.	.	.	.	.
.	.	_	.	.	.	.	.
.	.	_	.	.	.	.	.
.	.	.	.	.	.	.	.
=51	=51	=51	=51	=51	=51	=51	=51
1i	F#:min	Form	.	112.548	newline	voice	1F# 1a 1cc#
.	.	a	.	.	.	.	.
.	.	du-	G	.	.	.	.
.	.	-et,	.	.	.	.	.
.	.	_	.	.	.	.	.
.	.	let	.	.	.	.	.
.	.	him	.	.	.	.	.
=52	=52	=52	=52	=52	=52	=52	=52
1vb	C#:min/3	sing	.	114.841	.	voice	1c# 1E 1g#
.	.	me-	.	.	.	.	.
.	.	-lo-	(j	.	.	.	.
.	.	-dy	J)	.	.	.	.
.	.	_	.	.	.	.	.
.	.	.	.	.	.	.	.
=53	=53	=53	=53	=53	=53	=53	=53
1-IIIc	A:maj/5	You'll	.	117.133	.	voice	1a- 1cc 1E-
.	.	pro-	.	.	.	.	.
.	.	-vide	.	.	.	.	.
.	.	_	.	.	.	.	.
.	.	the	.	.	.	.	.
=54	=54	=54	=54	=54	=54	=54	=54
1iv	B:min	har-	.	119.426	.	voice	1B 1dd 1ff#
.	.	-mo-	(j	.	.	.	.
.	.	-ny	.J)	.	.	.	.
.	.	_	.	.	.	.	.
.	.	.	.	.	.	.	.
=55	=55	=55	=55	=55	=55	=55	=55
1-III	A:maj	.	.	121.718	.	voice	1A- 1cc 1ee-
=56	=56	=56	=56	=56	=56	=56	=56
1iv	B:min	.	.	124.011	.	voice	1B 1dd 1ff#
=57	=57	=57	=57	=57	=57	=57	=57
*C:	*C:	*	*	*C:	*C:	*C:	*C:
2Ic	C:maj/5	.	.	126.304	newline	guitar	1c 1e 1G
2V	G:maj	.	.	127.392	.	guitar	2G 2b 2dd
=58	=58	=58	=58	=58	=58	=58	=58
2Ic	C:maj/5	.	.	128.481	.	guitar	1c 1e 1G
2V	G:maj	.	.	129.57	.	guitar	2G 2b 2dd
=59	=59	=59	=59	=59	=59	=59	=59
2Ic	C:maj/5	.	.	130.659	.	guitar	1c 1e 1G
2V	G:maj	.	.	131.748	.	guitar	2G 2b 2dd
=60	=60	=60	=60	=60	=60	=60	=60
2Vc	G:maj/5	.	.	132.837	.	guitar	1g 1b 1D
2II	D:maj	.	.	133.926	.	guitar	2D 2f# 2a
=61	=61	=61	=61	=61	=61	=61	=61
2Ic	C:maj/5	.	.	135.014	newline	guitar	1c 1e 1G
2V	G:maj	.	.	136.131	.	guitar	2G 2b 2dd
=62	=62	=62	=62	=62	=62	=62	=62
2Ic	C:maj/5	.	.	137.247	.	guitar	1c 1e 1G
2V	G:maj	.	.	138.364	.	guitar	2G 2b 2dd
=63	=63	=63	=63	=63	=63	=63	=63
2Ic	C:maj/5	.	.	139.481	.	guitar	1c 1e 1G
2V	G:maj	.	.	140.597	.	guitar	2G 2b 2dd
=64	=64	=64	=64	=64	=64	=64	=64
2Vc	G:maj/5	.	.	141.714	.	guitar	1g 1b 1D
2II	D:maj	.	.	142.83	.	guitar	2D 2f# 2a
=65	=65	=65	=65	=65	=65	=65	=65
*>Letter>A	*>Letter>A	*>Letter>A	*>Letter>A	*>Letter>A	*>Letter>A	*>Letter>A	*>Letter>A
*>Label>Verse	*>Label>Verse	*>Label>Verse	*>Label>Verse	*>Label>Verse	*>Label>Verse	*>Label>Verse	*>Label>Verse
*B:	*B:	*	*	*B:	*B:	*B:	*B:
2IVc	E:maj/5	.	.	143.947	newline	voice	2e 2g# 2B
.	.	Why	.	.	.	.	.
.	.	are	.	.	.	.	.
.	.	you	.	.	.	.	.
.	.	in	.	.	.	.	.
2I	B:maj	so	.	145.061	.	voice	2B 2dd# 2ff#
.	.	much	.	.	.	.	.
.	.	hur-	(A	.	.	.	.
.	.	-ry	a)	.	.	.	.
=66	=66	=66	=66	=66	=66	=66	=66
2IVc	E:maj/5	.	.	146.176	.	voice	2e 2g# 2B
.	.	Is	.	.	.	.	.
.	.	it	.	.	.	.	.
.	.	real-	.	.	.	.	.
.	.	-ly	.	.	.	.	.
2I	B:maj	worth	.	147.291	.	voice	2B 2dd# 2ff#
.	.	the	.	.	.	.	.
.	.	wor-	(A	.	.	.	.
.	.	-ry	a)	.	.	.	.
=67	=67	=67	=67	=67	=67	=67	=67
1V	F#:maj	_	.	148.406	.	voice	1F# 1a# 1cc#
.	.	Look	.	.	.	.	.
.	.	a-	.	.	.	.	.
.	.	-round	B	.	.	.	.
.	.	_	.	.	.	.	.
.	.	_	.	.	.	.	.
.	.	_	.	.	.	.	.
.	.	.	.	.	.	.	.
=68	=68	=68	=68	=68	=68	=68	=68
1V	F#:maj	.	.	150.636	.	voice	1F# 1a# 1cc#
.	.	Then	.	.	.	.	.
.	.	slow	.	.	.	.	.
.	.	down	B	.	.	.	.
.	.	_	.	.	.	.	.
.	.	_	.	.	.	.	.
.	.	_	.	.	.	.	.
.	.	.	.	.	.	.	.
=69	=69	=69	=69	=69	=69	=69	=69
2IVc	E:maj/5	.	.	152.866	newline	voice	2e 2g# 2B
.	.	What's	.	.	.	.	.
.	.	it	.	.	.	.	.
.	.	like	.	.	.	.	.
.	.	in-	.	.	.	.	.
2I	B:maj	-side	.	153.985	.	voice	2B 2dd# 2ff#
.	.	the	.	.	.	.	.
.	.	bub-	(C	.	.	.	.
.	.	-ble	c)	.	.	.	.
=70	=70	=70	=70	=70	=70	=70	=70
2IVc	E:maj/5	.	.	155.105	.	voice	2e 2g# 2B
.	.	Does	.	.	.	.	.
.	.	your	.	.	.	.	.
.	.	head	.	.	.	.	.
.	.	e-	.	.	.	.	.
.	.	-ver	.	.	.	.	.
2I	B:maj	give	.	156.225	.	voice	2B 2dd# 2ff#
.	.	you	.	.	.	.	.
.	.	trou-	(C	.	.	.	.
.	.	-ble	c)	.	.	.	.
=71	=71	=71	=71	=71	=71	=71	=71
1V	F#:maj	.	.	157.344	.	voice	1F# 1a# 1cc#
.	.	It's	.	.	.	.	.
.	.	no	.	.	.	.	.
.	.	sin	D	.	.	.	.
.	.	_	.	.	.	.	.
.	.	_	.	.	.	.	.
.	.	_	.	.	.	.	.
.	.	.	.	.	.	.	.
=72	=72	=72	=72	=72	=72	=72	=72
1V	F#:maj	.	.	159.584	.	voice	1F# 1a# 1cc#
.	.	Trade	.	.	.	.	.
.	.	it	.	.	.	.	.
.	.	in	D	.	.	.	.
.	.	_	.	.	.	.	.
.	.	_	.	.	.	.	.
.	.	_	.	.	.	.	.
.	.	.	.	.	.	.	.
=73	=73	=73	=73	=73	=73	=73	=73
*>Letter>B	*>Letter>B	*>Letter>B	*>Letter>B	*>Letter>B	*>Letter>B	*>Letter>B	*>Letter>B
*>Label>Chorus	*>Label>Chorus	*>Label>Chorus	*>Label>Chorus	*>Label>Chorus	*>Label>Chorus	*>Label>Chorus	*>Label>Chorus
*C:	*C:	*	*	*C:	*C:	*C:	*C:
2IVc	F:maj/5	Hang	.	161.823	newline	voice	2f 2a 2C
.	.	on,	.	.	.	.	.
2I	C:maj	_	.	162.943	.	voice	2C 2e 2g
.	.	.	.	.	.	.	.
.	.	.	.	.	.	.	.
=74	=74	=74	=74	=74	=74	=74	=74
2IVc	F:maj/5	help	.	164.062	.	voice	2f 2a 2C
.	.	is	.	.	.	.	.
.	.	on	.	.	.	.	.
.	.	_	.	.	.	.	.
.	.	its	.	.	.	.	.
2I	C:maj	way	E	165.182	.	voice	2C 2e 2g
.	.	.	.	.	.	.	.
=75	=75	=75	=75	=75	=75	=75	=75
2IVc	F:maj/5	I'll	.	166.302	.	voice	2f 2a 2C
.	.	be	.	.	.	.	.
.	.	there	.	.	.	.	.
.	.	_	.	.	.	.	.
.	.	as	.	.	.	.	.
2I	C:maj	fast	.	167.422	.	voice	2C 2e 2g
.	.	as	.	.	.	.	.
.	.	I	.	.	.	.	.
=76	=76	=76	=76	=76	=76	=76	=76
1V	G:maj	can	F	168.541	.	voice	1G 1b 1dd
.	.	_	.	.	.	.	.
.	.	_	.	.	.	.	.
=77	=77	=77	=77	=77	=77	=77	=77
2IVc	F:maj/5	Hang	.	170.781	newline	voice	2f 2a 2C
.	.	on,	.	.	.	.	.
2I	C:maj	_	.	171.907	.	voice	2C 2e 2g
.	.	.	.	.	.	.	.
.	.	.	.	.	.	.	.
.	.	a	.	.	.	.	.
=78	=78	=78	=78	=78	=78	=78	=78
2IVc	F:maj/5	ti-	.	173.033	.	voice	2f 2a 2C
.	.	-ny	.	.	.	.	.
.	.	voice	.	.	.	.	.
.	.	_	.	.	.	.	.
.	.	did	.	.	.	.	.
2I	C:maj	say	E	174.159	.	voice	2C 2e 2g
.	.	.	.	.	.	.	.
.	.	From	.	.	.	.	.
=79	=79	=79	=79	=79	=79	=79	=79
2IVc	F:maj/5	some-	.	175.285	.	voice	2f 2a 2C
.	.	-where	.	.	.	.	.
.	.	deep	.	.	.	.	.
.	.	in-	.	.	.	.	.
2I	C:maj	-side	.	176.411	.	voice	2C 2e 2g
.	.	the	.	.	.	.	.
.	.	in-	.	.	.	.	.
.	.	_	.	.	.	.	.
.	.	-ner	.	.	.	.	.
.	.	man	F	.	.	.	.
=80	=80	=80	=80	=80	=80	=80	=80
1V	G:maj	_	.	177.537	.	voice	1G 1b 1dd
.	.	_	.	.	.	.	.
.	.	_	.	.	.	.	.
.	.	.	.	.	.	.	.
=81	=81	=81	=81	=81	=81	=81	=81
2IVc	F:maj/5	Hang	.	179.789	newline	voice	2f 2a 2C
.	.	on,	.	.	.	.	.
2I	C:maj	.	.	180.911	.	voice	2C 2e 2g
.	.	.	.	.	.	.	.
.	.	.	.	.	.	.	.
=82	=82	=82	=82	=82	=82	=82	=82
2IVc	F:maj/5	help	.	182.033	.	voice	2f 2a 2C
.	.	is	.	.	.	.	.
.	.	on	.	.	.	.	.
.	.	_	.	.	.	.	.
.	.	its	.	.	.	.	.
2I	C:maj	way	E	183.155	.	voice	2C 2e 2g
.	.	.	.	.	.	.	.
=83	=83	=83	=83	=83	=83	=83	=83
2IVc	F:maj/5	I'll	.	184.277	.	voice	2f 2a 2C
.	.	be	.	.	.	.	.
.	.	there	.	.	.	.	.
.	.	_	.	.	.	.	.
.	.	as	.	.	.	.	.
2I	C:maj	fast	.	185.399	.	voice	2C 2e 2g
.	.	as	.	.	.	.	.
.	.	I	.	.	.	.	.
=84	=84	=84	=84	=84	=84	=84	=84
1V	G:maj	can	F	186.521	.	voice	1G 1b 1dd
.	.	_	.	.	.	.	.
.	.	_	.	.	.	.	.
.	.	.	.	.	.	.	.
=85	=85	=85	=85	=85	=85	=85	=85
2IVc	F:maj/5	Hang	.	188.766	newline	voice	2f 2a 2C
.	.	on,	.	.	.	.	.
2I	C:maj	_	.	189.883	.	voice	2C 2e 2g
.	.	.	.	.	.	.	.
.	.	.	.	.	.	.	.
.	.	a	.	.	.	.	.
=86	=86	=86	=86	=86	=86	=86	=86
2IVc	F:maj/5	ti-	.	191.001	.	voice	2f 2a 2C
.	.	-ny	.	.	.	.	.
.	.	voice	.	.	.	.	.
.	.	_	.	.	.	.	.
.	.	did	.	.	.	.	.
2I	C:maj	say	E	192.119	.	voice	2C 2e 2g
.	.	.	.	.	.	.	.
.	.	From	.	.	.	.	.
=87	=87	=87	=87	=87	=87	=87	=87
2IVc	F:maj/5	some-	.	193.236	.	voice	2f 2a 2C
.	.	-where	.	.	.	.	.
.	.	deep	.	.	.	.	.
.	.	in-	.	.	.	.	.
2I	C:maj	-side	.	194.354	.	voice	2C 2e 2g
.	.	the	.	.	.	.	.
.	.	in-	.	.	.	.	.
.	.	_	.	.	.	.	.
.	.	-ner	.	.	.	.	.
.	.	man	F	.	.	.	.
=88	=88	=88	=88	=88	=88	=88	=88
1V	G:maj	_	.	195.471	.	voice	1G 1b 1dd
.	.	_	.	.	.	.	.
.	.	_	.	.	.	.	.
.	.	_	.	.	.	.	.
.	.	.	.	.	.	.	.
=89	=89	=89	=89	=89	=89	=89	=89
*>Letter>A	*>Letter>A	*>Letter>A	*>Letter>A	*>Letter>A	*>Letter>A	*>Letter>A	*>Letter>A
*>Label>Outro	*>Label>Outro	*>Label>Outro	*>Label>Outro	*>Label>Outro	*>Label>Outro	*>Label>Outro	*>Label>Outro
*B:	*B:	*	*	*B:	*B:	*B:	*B:
2IVc	E:maj/5	.	.	197.706	newline	guitar	1e 1g# 1B
2I	B:maj	.	.	198.821	.	guitar	2B 2dd# 2ff#
=90	=90	=90	=90	=90	=90	=90	=90
2IVc	E:maj/5	.	.	199.935	.	guitar	1e 1g# 1B
2I	B:maj	.	.	201.05	.	guitar	2B 2dd# 2ff#
=91	=91	=91	=91	=91	=91	=91	=91
1V	F#:maj	.	.	202.164	.	guitar	1F# 1a# 1cc#
=92	=92	=92	=92	=92	=92	=92	=92
1V	F#:maj	.	.	204.393	.	guitar	1F# 1a# 1cc#
=93	=93	=93	=93	=93	=93	=93	=93
2IVc	E:maj/5	Aah	.	206.622	newline	guitar	1e 1g# 1B
2I	B:maj	.	.	207.745	.	guitar	2B 2dd# 2ff#
=94	=94	=94	=94	=94	=94	=94	=94
2IVc	E:maj/5	_	.	208.868	.	guitar	2.e 2.g# 2.B
2I	B:maj	.	.	209.991	.	guitar	4B 4dd# 4ff#
.	.	Aah	.	.	.	.	.
=95	=95	=95	=95	=95	=95	=95	=95
1V	F#:maj	ah	.	211.113	.	guitar	1F# 1a# 1cc#
.	.	.	.	.	.	.	.
=96	=96	=96	=96	=96	=96	=96	=96
1V	F#:maj	Help	.	213.359	.	guitar	1F# 1a# 1cc#
.	.	is	.	.	.	.	.
.	.	on	.	.	.	.	.
.	.	_	.	.	.	.	.
.	.	its	.	.	.	.	.
.	.	way	E	.	.	.	.
.	.	_	.	.	.	.	.
.	.	_	.	.	.	.	.
.	.	.	.	.	.	.	.
=97	=97	=97	=97	=97	=97	=97	=97
2IVc	E:maj/5	Aah	.	215.605	newline	guitar	1e 1g# 1B
2I	B:maj	.	.	216.716	.	guitar	2B 2dd# 2ff#
=98	=98	=98	=98	=98	=98	=98	=98
2IVc	E:maj/5	_	.	217.827	.	guitar	2.e 2.g# 2.B
2I	B:maj	.	.	218.939	.	guitar	4B 4dd# 4ff#
.	.	Aah	.	.	.	.	.
=99	=99	=99	=99	=99	=99	=99	=99
1V	F#:maj	ah	.	220.05	.	guitar	1F# 1a# 1cc#
.	.	.	.	.	.	.	.
=100	=100	=100	=100	=100	=100	=100	=100
1V	F#:maj	Help	.	222.273	.	guitar	1F# 1a# 1cc#
.	.	is	.	.	.	.	.
.	.	on	.	.	.	.	.
.	.	_	.	.	.	.	.
.	.	its	.	.	.	.	.
.	.	way	E	.	.	.	.
.	.	_	.	.	.	.	.
.	.	_	.	.	.	.	.
.	.	.	.	.	.	.	.
=101	=101	=101	=101	=101	=101	=101	=101
2IVc	E:maj/5	.	.	224.496	newline	fadeout	1e 1g# 1B
2I	B:maj	.	.	225.638	.	fadeout	2B 2dd# 2ff#
=102	=102	=102	=102	=102	=102	=102	=102
2IVc	E:maj/5	.	.	226.78	.	fadeout	1e 1g# 1B
2I	B:maj	.	.	227.922	.	fadeout	2B 2dd# 2ff#
=103	=103	=103	=103	=103	=103	=103	=103
1V	F#:maj	.	.	229.064	.	fadeout	1F# 1a# 1cc#
=104	=104	=104	=104	=104	=104	=104	=104
1V	F#:maj	.	.	231.349	.	fadeout	1F# 1a# 1cc#
=105	=105	=105	=105	=105	=105	=105	=105
2IVc	E:maj/5	.	.	233.633	newline	guitar	1e 1g# 1B
2I	B:maj	.	.	234.471	.	guitar	2B 2dd# 2ff#
=106	=106	=106	=106	=106	=106	=106	=106
2IVc	E:maj/5	.	.	235.309	.	guitar	1e 1g# 1B
2I	B:maj	.	.	236.147	.	guitar	2B 2dd# 2ff#
=107	=107	=107	=107	=107	=107	=107	=107
2IVc	E:maj/5	.	.	236.985	.	guitar	1e 1g# 1B
2I	B:maj	.	.	237.823	.	guitar	2B 2dd# 2ff#
=108	=108	=108	=108	=108	=108	=108	=108
2IVc	E:maj/5	.	.	238.661	.	guitar	1e 1g# 1B
2I	B:maj	.	.	239.499	.	guitar	2B 2dd# 2ff#
1r;	N	.	.	240.337	.	r	1r;
1r;	N	.	.	242.312	.	r	1r;
*-	*-	*-	*-	*-	*-	*-	*-
!!!BillboardChartDate: 1977/11/05, 1977/12/24
!!!BillboardPeak: 14, 14
!!!BillboardWeeksOnChart: 22, 22
!!!COC: Little River Band
!!!ENC: Nathaniel Condit-Schultz
!!!EST: Awating manual error checking and editing.
!!!OTL: Help Is On Its Way
!!!RDF**harte: Chris Harte's syntax, used by MIREX
!!!RDF**harmony: **recip + pitch class of root + harmonic quality
!!!RDF**leadinstrument: original McGill primary instrumentation annotation
!!!RDF**phrase: newline = linebreak in original McGill transcription
!!!RDF**timestamp: McGill audio timestamp in seconds
!!!RDT: 2017/01/12/
!!!SampleActualRank: 18, 100
!!!SampleID#: 187, 721
!!!SampleTargetRank: 20, 98
!!!MBID: 6aec9572-5044-4dca-849c-8c790d431355
